svgs/thin/circle-sort-up.svg

<svg xmlns="http://www.w3.org/2000/svg" viewBox="0 0 512 512"><!--! Font Awesome Pro 6.3.0 by @fontawesome - https://fontawesome.com License - https://fontawesome.com/license (Commercial License) Copyright 2023 Fonticons, Inc. --><path d="M346.4 314.3l-84.56 83.22c-3.344 3.219-8.625 3-11.66 .0938L165.6 314.3C164.1 312.8 162 312 160 312c-2.062 0-4.125 .7813-5.688 2.375c-3.125 3.156-3.062 8.219 .0625 11.31L239 409.1c9.125 8.781 24.47 8.938 33.97-.0938l84.66-83.31c3.125-3.094 3.188-8.156 .0625-11.31C354.6 311.3 349.5 311.2 346.4 314.3zM176.2 224h159.7c9.938 0 18.47-5.688 22.28-14.88c3.812-9.156 1.844-19.22-5.156-26.22l-80.09-80C268.2 98.47 262.3 95.1 256 95.1c-6.219 0-12.44 2.531-17.12 7.031L159 182.9c-7 7-8.969 17.06-5.156 26.22C157.7 218.3 166.2 224 176.2 224zM170.3 194.2l79.72-79.75c3.219-3.125 8.531-3.062 11.62-.125l79.97 79.88c3.5 3.5 2.188 7.594 1.688 8.781C342.9 204.2 340.9 208 335.8 208H176.2c-5.031 0-7.031-3.812-7.5-5C168.2 201.8 166.8 197.7 170.3 194.2zM256 0c-141.4 0-256 114.6-256 256s114.6 256 256 256s256-114.6 256-256S397.4 0 256 0zM256 496c-132.3 0-240-107.7-240-240S123.7 16 256 16s240 107.7 240 240S388.3 496 256 496z"/></svg>

<svg xmlns="http://www.w3.org/2000/svg" viewBox="0 0 512 512"><!-- Font Awesome Pro 6.0.0-alpha2 by @fontawesome - https://fontawesome.com License - https://fontawesome.com/license (Commercial License) --><path d="M256 496C388.58 496 496 388.58 496 256S388.58 16 256 16C123.418 16 16 123.42 16 256S123.418 496 256 496ZM256 32C379.514 32 480 132.486 480 256S379.514 480 256 480S32 379.514 32 256S132.486 32 256 32ZM176.156 224H335.844C345.781 224 354.312 218.312 358.125 209.125C361.938 199.969 359.969 189.906 352.969 182.906L272.875 102.906C268.219 98.469 262.25 96 256 96C249.781 96 243.562 98.531 238.875 103.031L159.031 182.906C152.031 189.906 150.063 199.969 153.875 209.125C157.688 218.312 166.219 224 176.156 224ZM170.344 194.219L250.062 114.469C253.281 111.344 258.594 111.406 261.687 114.344L341.656 194.219C345.156 197.719 343.844 201.813 343.344 203C342.875 204.188 340.875 208 335.844 208H176.156C171.125 208 169.125 204.188 168.656 203C168.156 201.812 166.844 197.719 170.344 194.219ZM239 409.094C248.125 417.875 263.469 418.031 272.969 409L357.625 325.688C360.75 322.594 360.812 317.531 357.687 314.375C354.594 311.25 349.531 311.188 346.375 314.313L261.812 397.531C258.469 400.75 253.188 400.531 250.156 397.625L165.625 314.312C164.062 312.781 162.031 312 160 312C157.938 312 155.875 312.781 154.312 314.375C151.188 317.531 151.25 322.594 154.375 325.688L239 409.094Z"/></svg>
